packages/foundations/assets/icons/functional/images/maps/location_arrow_north_24_filled.svg

<svg width="24" height="24" viewBox="0 0 24 24" fill="none" xmlns="http://www.w3.org/2000/svg">
<g clip-path="url(#clip0_2213_4844)">
<path fill-rule="evenodd" clip-rule="evenodd" d="M12 7.59902C12.5292 7.59902 12.8337 7.90609 13.0388 8.36805L17.7717 20.6665C17.9699 21.182 17.7128 21.7606 17.1973 21.9589C16.8284 22.1007 16.4106 22.0121 16.1312 21.7326L12.0004 17.6014L7.86851 21.7333C7.47799 22.1238 6.84482 22.1238 6.4543 21.7333C6.17487 21.4539 6.0862 21.0361 6.22804 20.6672L10.9285 8.49777C11.0546 8.1488 11.4226 7.59902 12 7.59902ZM12 1.97382C12.5128 1.97382 13 2.28232 13 2.97382V5.22072C13 5.773 12.5523 6.22072 12 6.22072C11.4872 6.22072 11.0015 5.7975 11 5.22072L10.999 4.72907L11 2.97382C11 2.42154 11.4477 1.97382 12 1.97382Z" fill="#1A1C1F"/>
</g>
<defs>
<clipPath id="clip0_2213_4844">
<rect width="24" height="24" fill="white"/>
</clipPath>
</defs>
</svg>

<svg xmlns="http://www.w3.org/2000/svg" width="24" height="24" fill="none"><g clip-path="url(#a)"><path fill="#1A1C1F" fill-rule="evenodd" d="M12 7.599c.53 0 .834.307 1.039.769l4.733 12.298a1 1 0 0 1-1.64 1.067L12 17.6 7.87 21.733a1 1 0 0 1-1.641-1.066l4.7-12.17c.127-.348.495-.898 1.072-.898m0-5.625c.513 0 1 .308 1 1V5.22a1 1 0 0 1-1 1 1.01 1.01 0 0 1-1-1l-.001-.492L11 2.974a1 1 0 0 1 1-1" clip-rule="evenodd"/></g><defs><clipPath id="a"><path fill="#fff" d="M0 0h24v24H0z"/></clipPath></defs></svg>
